assets/icon-box.svg

<svg
  class="icon icon-accordion icon-box"
  aria-hidden="true"
  focusable="false"
  xmlns="http://www.w3.org/2000/svg"
  width="20"
  height="20"
  viewBox="0 0 20 20"
>
  <path d="M9.69502 0.6786C9.91338 0.601796 10.1516 0.603123 10.3691 0.682353L18.2151 3.54058C18.61 3.68445 18.8728 4.05988 18.8728 4.48018V14.4287C18.8728 14.8074 18.6588 15.1537 18.32 15.3231L10.4731 19.2465C10.196 19.385 9.87022 19.3873 9.59117 19.2526L1.45405 15.3244C1.10843 15.1576 0.888794 14.8076 0.888794 14.4239V4.48434C0.888794 4.05997 1.15665 3.68181 1.55699 3.541L9.69502 0.6786ZM6.07999 3.01017L2.5346 4.25719L10.149 7.63545L13.5692 6.118L6.07999 3.01017ZM6.78606 2.76183L14.1997 5.83828L17.5367 4.35774L10.0268 1.62195L6.78606 2.76183ZM1.88879 14.4239L1.88879 5.06467L9.64898 8.50762V18.1701L1.88879 14.4239ZM17.8728 14.4287L10.649 18.0405V8.50762L17.8728 5.30263V14.4287Z" fill-rule="evenodd"/>
</svg>

<svg xmlns="http://www.w3.org/2000/svg" class="icon icon-accordion icon-box" viewBox="0 0 20 20"><path fill-rule="evenodd" d="M9.695.679a1 1 0 0 1 .674.003l7.846 2.859a1 1 0 0 1 .658.94v9.948a1 1 0 0 1-.553.894l-7.847 3.924a1 1 0 0 1-.882.006l-8.137-3.929a1 1 0 0 1-.565-.9v-9.94a1 1 0 0 1 .668-.943zM6.08 3.01 2.535 4.257l7.614 3.378 3.42-1.517zm.706-.248L14.2 5.838l3.337-1.48-7.51-2.736zM1.89 14.424v-9.36l7.76 3.444v9.662zm15.984.005-7.224 3.612V8.508l7.224-3.205z"/></svg>
